icon-svg/friends-of-hue.svg

<svg xmlns="http://www.w3.org/2000/svg" fill="#44739e" viewBox="0 0 24 24"><path d="M8 4h16c2.209 0 4 1.791 4 4v16c0 2.209-1.791 4-4 4H8c-2.209 0-4-1.791-4-4V8c0-2.209 1.791-4 4-4m1 2C7.343 6 6 7.343 6 9v14c0 1.657 1.343 3 3 3h14c1.657 0 3-1.343 3-3V9c0-1.657-1.343-3-3-3zm1 2h5v16h-5c-1.104 0-2-.896-2-2V10c0-1.104.896-2 2-2m12 0c1.104 0 2 .896 2 2v12c0 1.104-.896 2-2 2h-5V8z"/></svg>

<?xml version="1.0" encoding="UTF-8"?>
<svg width="32px" height="32px" viewBox="0 0 32 32" version="1.1" fill="#44739e" xmlns="http://www.w3.org/2000/svg" xmlns:xlink="http://www.w3.org/1999/xlink">
            <path d="M8,4 L24,4 C26.209,4 28,5.791 28,8 L28,24 C28,26.209 26.209,28 24,28 L8,28 C5.791,28 4,26.209 4,24 L4,8 C4,5.791 5.791,4 8,4 Z M9,6 C7.343,6 6,7.343 6,9 L6,23 C6,24.657 7.343,26 9,26 L23,26 C24.657,26 26,24.657 26,23 L26,9 C26,7.343 24.657,6 23,6 L9,6 Z M10,8 L15,8 L15,24 L10,24 C8.896,24 8,23.104 8,22 L8,10 C8,8.896 8.896,8 10,8 Z M22,8 C23.104,8 24,8.896 24,10 L24,22 C24,23.104 23.104,24 22,24 L17,24 L17,8 L22,8 Z"></path>
</svg>
